X:151
T:Duke of Perth’s Reel TS.151
M:C|
L:1/8
Q:1/2=60
S:Thomas Sands’ MS,1810,Lincolnshire
R:reel
O:England;Lincolnshire
Z:vmp.Ruairidh Greig, 2011
K:G
B|(G/A/B/c/) dB gBdB|gBdB aAAB|(G/A/B/c/) dB gBdB|cAdc BGG:|
|:d|gage abaf|gage beef|gage abaf|gdec BGG:|]

